X:1
T:Title
%%score ( 1 2 ) ( 3 4 )
L:1/8
Q:1/4=120
M:3/2
K:E
V:1 treble nm="Midi_20"
V:2 treble 
V:3 bass nm="Midi_20"
V:4 bass 
V:1
"^Wildersmouth (87. 87. 47)""^E. J. Hopkins\n(1818-1901)" E2 F2 | G6 G2 F2 G2 | B4 A4 G2 F2 | %3
 E6 E2 F2 F2 | G8 || G2 c2 | B6 A2 G2 F2 |[M:3/2] F4 E4 G2 G2 | F2 G2 ^A4 c4 | B8 || B2 B2 | %11
 e8 B4 | E2 F2 G4 G4 | A8 F4 | E8 |] %15
V:2
 B,2 B,2 | E6 E2 E2 E2 | E4 E4 C2 C2 | B,6 E2 E2 D2 | E8 || E2 E2 | D6 D2 D2 D2 | %7
[M:3/2] D4 E4 C2 C2 | D2 F2 E4 E4 | D8 || D2 D2 | E8 D4 | E2 B,2 E4 C4 | (C4 F4) D4 | E8 |] %15
V:3
 G,2 A,2 | B,6 B,2 A,2 B,2 | C4 C4 B,2 A,2 | G,6 G,2 F,2 B,2 | B,8 || B,2 G,2 | F,6 C2 B,2 A,2 | %7
[M:3/2] A,4 G,4 G,2 ^A,2 | B,2 D2 C4 ^A,4 | B,8 || B,2 B,2 | (B,4 C4) A,4 | G,2 F,2 E,4 ^E,4 | %13
 (F,4 C4) A,4 | G,8 |] %15
V:4
 E,2 E,2 | E,6 E,2 E,2 E,2 | A,,4 A,,4 A,,2 A,,2 | B,,6 B,,2 B,,2 B,,2 | E,8 || E,2 E,2 | %6
 B,,6 B,,2 B,,2 B,,2 |[M:3/2] C,4 C,4 E,2 E,2 | F,2 F,2 F,4 F,4 | B,,8 || B,2 A,2 | G,8 F,4 | %12
 E,2 D,2 C,4 B,,4 | (A,,4 F,,4) B,,4 | E,8 |] %15

